X:1
T:Title
%%score ( 1 2 ) { 3 | 4 }
L:1/8
Q:1/4=107
M:4/4
K:G
V:1 treble nm="Grand Piano, Soprano"
V:2 treble 
V:3 bass nm="Choir Pad, Puerto Rico, 87.87 D"
V:4 bass 
V:1
 [DG]2 [DF]2 [DA]2 [DG]2 | [DB]2 [DA]2 [Dc]2 [DB]2 | [Gd]3 [Ge] [Gd]2 [GB]2 | [GB]2 [FA]2 [FA]4 | %4
w: By~Daniel~Brink~Towner,~1899 * * *||||
 [DG]2 [DF]2 [DA]2 [DG]2 | [DB]2 [DA]2 [Dc]2 [DB]2 | [Gd]3 [Ge] [Gd]2 [GB]2 | %7
w: |||
 [FA]3 G G2 (3G[FA][=FB] | [Ec]2 [Gc]4 (3[Ge][Fd][Ec] | [DB]2 [Gd]4 [GB]>[GB] | %10
w: |||
 [FA]2 [Fd]2 [Ge]3 [G^c] | d6 z2 | G2 [FA]2 [GB]2 [Gd]2 | c4 z4 | [Gd]2 [GB]2 [FA]3 G | G8 |] %16
w: ||||||
V:2
 x8 | x8 | x8 | x8 | x8 | x8 | x8 | x8 | x8 | x8 | x8 | F2 G2 A2 (3DEF | x8 | %13
 G3- [Gd] [Ge]2 (3[Ec][Fd][Ge] | x8 | x8 |] %16
V:3
 B,2 C2 C2 B,2 | G,2 F,2 F,2 G,2 | B,3[K:treble] C B,2 D2 | D2 C2 D4 | B,2 C2 C2[K:bass] B,2 | %5
 G,2 F,2 F,2 G,2 | B,3[K:treble] C B,2 D2 | C3 B, B,2 (3B,CD | C2 E4 (3:2:2C2 C | D2 B,4 D>D | %10
 D2[K:bass] A,2 A,3 A, | A,2 B,2 D2 (3D,E,F, | G,2[K:treble] D2 D2 B,2 | C3 B, C2 (3:2:2C2 C | %14
 B,2 D2 C3 B, | B,8 |] %16
V:4
 G,2 A,2 F,2 G,2 | D,2 C,2 A,,2 A,,2 | G,3 G, G,2 G,2 | D,2 D,2 D,4 | G,2 A,2 F,2 G,2 | %5
 D,2 C,2 A,,2 G,,2 | G,3 G, G,2 G,2 | D,3 G, G,2 (3:2:2G,2 G, | C,2 C,4 (3:2:2C,2 C, | %9
 G,2 G,4 G,>G, | A,2 z2 z4 | D,6 z2 | z2 D,2 G,2 G,=F, | E,3 D, C,2 (3:2:2C,2 C, | %14
 D,2 D,2 D,3 [G,,G,] | [G,,G,]8 |] %16

